X:2338
L:1/4
Q:3/4=120
M:6/4
K:A
 A e2- e2 f | e3 c3 | A B c B2 A | A B c B2 A | A e2- e2 f | e3 c3 | A B c B2 A | A3- A3 |:

